dist/img/content/how-it-works/06.svg

<svg width="28" height="45" viewBox="0 0 28 45" fill="none" xmlns="http://www.w3.org/2000/svg">
<path d="M17.7188 40.0781L21.9375 35.8594V23.9062L18.4219 20.3906H7.875V7.73438H16.3125V14.7656H21.9375V6.32812L17.7188 2.10938H6.46875L2.25 6.32812V35.8594L6.46875 40.0781H17.7188ZM7.875 26.0156H16.3125V34.4531H7.875V26.0156Z" fill="#FFB07B"/>
<path d="M7.875 26.0156L10.6875 28.8281V34.4531H7.875V26.0156Z" fill="#AC8560"/>
<path d="M10.6875 28.8281H16.3125V26.0156H7.875L10.6875 28.8281Z" fill="#AC8560"/>
<path d="M7.875 7.73438L10.6875 10.5469V20.3906H7.875V7.73438Z" fill="#AC8560"/>
<path d="M10.6875 10.5469H16.3125V7.73438H7.875L10.6875 10.5469ZM16.3125 14.7656L19.125 17.5781H24.75L21.9375 14.7656H16.3125Z" fill="#AC8560"/>
<path d="M21.9375 6.32812L24.75 9.14062V17.5781L21.9375 14.7656V6.32812Z" fill="#AC8560"/>
<path d="M6.46875 40.0781L9.28125 42.8906H20.5312L17.7188 40.0781H6.46875Z" fill="#AC8560"/>
<path d="M17.7119 40.0781L21.93 35.8594L24.7425 38.6719L20.5237 42.8899L17.7119 40.0781Z" fill="#9E734C"/>
<path d="M21.9375 35.8594L24.75 38.6719V26.7188L21.9375 23.9062V35.8594Z" fill="#AC8560"/>
<path d="M7.17188 34.4531C7.17188 34.6396 7.24595 34.8184 7.37782 34.9503C7.50968 35.0822 7.68852 35.1562 7.875 35.1562H16.3125C16.499 35.1562 16.6778 35.0822 16.8097 34.9503C16.9415 34.8184 17.0156 34.6396 17.0156 34.4531V26.0156C17.0156 25.8291 16.9415 25.6503 16.8097 25.5184C16.6778 25.3866 16.499 25.3125 16.3125 25.3125H7.875C7.68852 25.3125 7.50968 25.3866 7.37782 25.5184C7.24595 25.6503 7.17188 25.8291 7.17188 26.0156V34.4531ZM15.6094 33.75H11.3906V29.5312H15.6094V33.75ZM15.6094 26.7188V28.125H10.9786L9.57234 26.7188H15.6094ZM8.57812 27.713L9.98438 29.1192V33.75H8.57812V27.713Z" fill="#222831"/>
<path d="M18.2159 1.61227C18.084 1.48039 17.9052 1.40629 17.7188 1.40625H6.46875C6.28228 1.40629 6.10347 1.48039 5.97164 1.61227L1.75289 5.83102C1.62102 5.96285 1.54691 6.14166 1.54688 6.32812V35.8594C1.54691 36.0458 1.62102 36.2247 1.75289 36.3565L8.78414 43.3877C8.91597 43.5196 9.09478 43.5937 9.28125 43.5938H20.5312C20.7167 43.5911 20.8936 43.5153 21.0234 43.3828L25.2422 39.1641C25.3747 39.0342 25.4505 38.8573 25.4531 38.6719V26.7188C25.4531 26.5323 25.379 26.3535 25.2471 26.2216L18.919 19.8935C18.7872 19.7616 18.6083 19.6875 18.4219 19.6875H11.3906V11.25H15.6094V14.7656C15.6094 14.9521 15.6835 15.1309 15.8154 15.2627L18.6279 18.0752C18.7597 18.2071 18.9385 18.2812 19.125 18.2812H24.75C24.8891 18.2813 25.025 18.2401 25.1406 18.1629C25.2563 18.0856 25.3464 17.9759 25.3997 17.8474C25.427 17.7598 25.4449 17.6695 25.4531 17.5781V9.14062C25.4531 8.95416 25.379 8.77535 25.2471 8.64352L18.2159 1.61227ZM9.57234 42.1875L8.16609 40.7812H17.4277L18.8339 42.1875H9.57234ZM22.6406 25.6036L24.0469 27.0098V36.9745L22.6406 35.5683V25.6036ZM23.7558 38.6719L20.5312 41.8964L18.713 40.0781L21.9375 36.8536L23.7558 38.6719ZM15.6094 9.84375H10.9786L9.57234 8.4375H15.6094V9.84375ZM9.98438 10.838V19.6875H8.57812V9.43172L9.98438 10.838ZM16.3125 7.03125H7.875C7.68852 7.03125 7.50968 7.10533 7.37782 7.23719C7.24595 7.36905 7.17188 7.54789 7.17188 7.73438V20.3906C7.17188 20.5771 7.24595 20.7559 7.37782 20.8878C7.50968 21.0197 7.68852 21.0938 7.875 21.0938H18.1308L21.2344 24.1973V35.5683L17.4277 39.375H6.75984L2.95312 35.5683V6.61922L6.75984 2.8125H17.4277L21.2344 6.61922V14.0625H17.0156V7.73438C17.0156 7.54789 16.9415 7.36905 16.8097 7.23719C16.6778 7.10533 16.499 7.03125 16.3125 7.03125ZM19.4161 16.875L18.0098 15.4688H21.6464L23.0527 16.875H19.4161ZM24.0469 15.8808L22.6406 14.4745V8.02547L24.0469 9.43172V15.8808Z" fill="#222831"/>
</svg>

<svg width="28" height="45" fill="none" xmlns="http://www.w3.org/2000/svg"><path d="M17.719 40.078l4.218-4.219V23.906l-3.515-3.515H7.875V7.734h8.438v7.032h5.625V6.328l-4.22-4.219H6.469L2.25 6.33v29.53l4.219 4.22h11.25zM7.875 26.016h8.438v8.437H7.874v-8.437z" fill="#FFB07B"/><path d="M7.875 26.016l2.813 2.812v5.625H7.874v-8.437zm2.813 2.812h5.624v-2.812H7.876l2.813 2.812zM7.875 7.734l2.813 2.813v9.844H7.874V7.734zm2.813 2.813h5.624V7.734H7.876l2.813 2.813zm5.624 4.219l2.813 2.812h5.625l-2.813-2.812h-5.625zm5.626-8.438l2.812 2.813v8.437l-2.813-2.812V6.328zM6.469 40.078l2.812 2.813h11.25l-2.812-2.813H6.469z" fill="#AC8560"/><path d="M17.712 40.078l4.218-4.219 2.813 2.813-4.22 4.218-2.811-2.812z" fill="#9E734C"/><path d="M21.938 35.86l2.812 2.812V26.719l-2.813-2.813V35.86z" fill="#AC8560"/><path d="M7.172 34.453a.703.703 0 00.703.703h8.438a.703.703 0 00.703-.703v-8.437a.703.703 0 00-.703-.703H7.874a.703.703 0 00-.703.703v8.437zm8.437-.703h-4.218v-4.219h4.218v4.219zm0-7.031v1.406h-4.63l-1.407-1.406h6.037zm-7.03.994l1.405 1.406v4.631H8.578v-6.037z" fill="#222831"/><path d="M18.216 1.612a.703.703 0 00-.497-.206H6.469a.703.703 0 00-.497.206l-4.22 4.219a.703.703 0 00-.205.497V35.86a.7.7 0 00.206.497l7.031 7.032c.132.132.31.206.497.206h11.25a.703.703 0 00.492-.211l4.22-4.219a.703.703 0 00.21-.492V26.719a.703.703 0 00-.206-.497l-6.328-6.329a.703.703 0 00-.497-.206H11.39V11.25h4.218v3.516c0 .186.075.365.206.497l2.813 2.812c.132.132.31.206.497.206h5.625a.702.702 0 00.65-.434c.027-.087.045-.178.053-.269V9.141a.703.703 0 00-.206-.497l-7.031-7.032zM9.572 42.187l-1.406-1.406h9.262l1.406 1.407H9.572zm13.069-16.583l1.406 1.406v9.964l-1.406-1.406v-9.964zm1.115 13.068l-3.225 3.224-1.818-1.818 3.224-3.224 1.819 1.818zM15.609 9.844h-4.63L9.572 8.438h6.037v1.406zm-5.625.994v8.85H8.578V9.431l1.406 1.406zm6.329-3.807H7.874a.703.703 0 00-.703.703v12.657a.703.703 0 00.703.703H18.13l3.103 3.103v11.371l-3.806 3.807H6.76l-3.807-3.807V6.62L6.76 2.813h10.668l3.806 3.806v7.444h-4.218V7.734a.703.703 0 00-.703-.703zm3.103 9.844l-1.406-1.406h3.636l1.407 1.406h-3.637zm4.63-.994l-1.405-1.406v-6.45l1.406 1.407v6.449z" fill="#222831"/></svg>
